packages/swarm-icons/src/icons/large/Archive.svg

<svg xmlns="http://www.w3.org/2000/svg" width="28" height="28" viewBox="0 0 28 28">
  <path fill="#212121" d="M23.999034,11.4372396 C23.9996764,11.458081 24,11.4790027 24,11.5 L24,22.5 C24,23.6045695 23.1045695,24.5 22,24.5 L6,24.5 C4.8954305,24.5 4,23.6045695 4,22.5 L4,11.5 C4,11.4790027 4.00032357,11.458081 4.000966,11.4372396 C3.13786229,11.2155544 2.5,10.4322676 2.5,9.5 L2.5,6.5 C2.5,5.3954305 3.3954305,4.5 4.5,4.5 L23.5,4.5 C24.6045695,4.5 25.5,5.3954305 25.5,6.5 L25.5,9.5 C25.5,10.4322676 24.8621377,11.2155544 23.999034,11.4372396 Z M22,11.5 L6,11.5 L6,22.5 L22,22.5 L22,11.5 Z M22,9.5 L23.5,9.5 L23.5,6.5 L4.5,6.5 L4.5,9.5 L6,9.5 L22,9.5 Z M9,13.5 L19,13.5 L19,15.5 L9,15.5 L9,13.5 Z"/>
</svg>

<svg xmlns="http://www.w3.org/2000/svg" width="28" height="28"><path fill="#212121" d="M23.999 11.437L24 11.5v11a2 2 0 01-2 2H6a2 2 0 01-2-2v-11l.001-.063A2 2 0 012.5 9.5v-3a2 2 0 012-2h19a2 2 0 012 2v3a2 2 0 01-1.501 1.937zM22 11.5H6v11h16v-11zm0-2h1.5v-3h-19v3H22zm-13 4h10v2H9v-2z"/></svg>
